X: 163
T: Yaolan qu
L: 1/8
M: 4/4
K: F
G4c z [I:setbarnb 1]| 
A c/ A/ G A/ G/ F D | 
F4F z | 
F G A c/ A/ G A A/ G/ F | 
[M:3/4]G4c z | 
[M:4/4]G A c> A G A G F/ D/ | 
[M:3/4]F4F z | 
[M:4/4]F G A c/ A/ G A A/ G/ F | 
[M:3/4]G4c z | 
[M:4/4]G A c> A G A G F/ D/ | 
[M:3/4]F4F z | 
G4c z | 
A c/ A/ G A/ G/ F D | 
F4F z |]

@@@ Tune index: 8831
